X:1
T:Inquiétude
T:Inquiétude
T:Unruhe * Restlessness
T:Johann Friedrich Franz Burgmüller (1806-1874) Opus 100.
T:25 Etudes faciles 
T:by Mutopia-2013/01/12-230
C:Johann Friedrich Franz Burgmüller (1806-1874) Opus 100.
Z:by Mutopia-2013/01/12-230
%%score { 1 | 2 }
L:1/8
Q:1/4=138
M:2/4
K:G
V:1 treble nm="Piano" snm="Pno."
V:2 bass 
V:1
"^Allegro agitato"!p! z/ (!3!g/f/e/) z/ (!3!e/d/c/) | z/ (!3!B/^A/B/) z/ (B/c/B/) | %2
 z/ (g/f/e/) z/ (e/d/c/) | z/ (B/^A/B/) z/ (B/c/B/) | z/ (!1!B/!4!g/f/) z/ (B/g/f/) | %5
 z/"_cresc." (!1!B/!4!f/e/) z/ (B/f/e/) | z/!mf! (!2!d/e/d/) z/ (!2!^c/d/c/) | %7
 z/ (!1!B/!2!^A/!1!B/ !wedge!!5!b) z |:!mf! z/ (!3!b/a/g/) z/ (!3!g/f/e/) | %9
 z/ (!3!d/^c/d/) z/ (d/e/d/) | z/ (b/a/g/) z/ (g/f/e/) | z/ (d/^c/d/) z/ (d/e/d/) | %12
 z/ (!1!c/b/a/) z/ (c/b/a/) | z/ (!1!B/a/g/) z/ (B/a/g/) | %14
"_dim." z/[Q:1/4=132] (B/g/f/) z/ (B/g/f/) | z/ (B/f/e/) z/ (B/f/e/) | %16
!p! z/ (!3!g/f/e/) z/ (!3!e/d/c/) | z/ (B/^A/B/) z/ (B/c/B/) | z/ (g/f/e/) z/ (e/d/c/) | %19
 z/ (B/^A/B/) z/ (B/c/B/) |"_cresc." z/ (!1!B/!5!g/f/) z/ (B/g/f/) | %21
 z/ (!1!B/!5!f/e/) z/ (B/f/e/) | z/ (!2!B/c/B/) z/ (!2!F/G/F/) |1 z/ (E/^D/E/ !wedge!e) z :|2 %24
 z/[Q:1/4=138] (E/F/E/)!f! z/ (C/D/C/) || z/ (!2!A,/B,/A,/) z/ (!2!B,/C/B,/) | %26
 z/ (!2!E/F/E/) z/ (!2!C/D/C/) | z/ (!2!A,/B,/A,/) z/ (B,/C/B,/ | E2) z/"_dim." (!2!B/c/B/ | %29
 e) z z/!p! (b/c'/b/ | !wedge!e'2) z2 |] %31
V:2
 .[E,G,B,] z .[E,A,C] z | .[E,G,B,] z"_simile." [E,G,B,] z | [E,G,B,] z [E,A,C] z | %3
 [E,G,B,] z [E,G,B,] z | [^D,A,B,] z [D,A,B,] z | [E,G,B,] z [E,G,B,] z | [F,B,] z (!>![F,^A,E]2 | %7
 [B,D] z !wedge!B,,) z |: [G,B,D] z [G,^A,^C] z | [G,B,D] z [G,B,D] z | [G,B,D] z [G,^A,^C] z | %11
 [G,B,D] z [G,B,D] z | [F,CD] z [F,CD] z | [G,B,D] z [G,B,D] z |[K:treble] [B,^DA] z [B,DA] z | %15
 [EG] z [EG] z |[K:bass] [E,G,B,] z [E,A,C] z | [E,G,B,] z [E,G,B,] z | [E,G,B,] z [E,A,C] z | %19
 [E,G,B,] z [E,G,B,] z | [^D,A,B,] z [D,A,B,] z | [E,G,B,] z [E,G,B,] z | %22
 [B,,^D,A,] z [B,,D,A,] z |1 [E,G,] z !wedge!E,, z :|2 [E,G,] z !2!C,2 || A,,2 !3!B,,2 | %26
 !1!E,2 !2!C,2 | !4!A,,2 !3!B,,2 | E,2 z2 | !wedge![E,G,B,] z z2 | !wedge!E,, z z2 |] %31

